images/services/comments-icon.svg

<?xml version="1.0" encoding="UTF-8"?>
<svg width="42" height="43" version="1.1" viewBox="0 0 42 43" xmlns="http://www.w3.org/2000/svg">
 <path d="m34.104 0h-26.207c-4.3612 0-7.8965 3.5354-7.8965 7.8965v17.189c0 4.3611 3.5354 7.8965 7.8965 7.8965h3.7611c0.1789 0 0.3239 0.145 0.3239 0.3239v8.4788c0 1.0024 1.2263 1.4885 1.913 0.7582l8.896-9.4589c0.0613-0.0652 0.1467-0.102 0.2361-0.102h11.077c4.3611 0 7.8965-3.5355 7.8965-7.8965v-17.189c0-4.3611-3.5354-7.8965-7.8965-7.8965z" fill="#FF725E"/>
 <g fill="#fff">
  <path d="m15.89 16.546c0 1.4112-1.144 2.5552-2.5552 2.5552s-2.5552-1.144-2.5552-2.5552c0-1.4111 1.144-2.5551 2.5552-2.5551s2.5552 1.144 2.5552 2.5551z"/>
  <path d="m23.513 16.546c0 1.4112-1.144 2.5552-2.5552 2.5552-1.4111 0-2.5551-1.144-2.5551-2.5552 0-1.4111 1.144-2.5551 2.5551-2.5551 1.4112 0 2.5552 1.144 2.5552 2.5551z"/>
  <path d="m31.137 16.546c0 1.4112-1.144 2.5552-2.5552 2.5552s-2.5552-1.144-2.5552-2.5552c0-1.4111 1.144-2.5551 2.5552-2.5551s2.5552 1.144 2.5552 2.5551z"/>
 </g>
</svg>

<svg width="42" height="43" viewBox="0 0 42 43" fill="none" xmlns="http://www.w3.org/2000/svg">
<path d="M34.1035 0H7.8965C3.53528 0 0 3.53544 0 7.89651V25.0851C0 29.4462 3.53544 32.9816 7.8965 32.9816H11.6576C11.8365 32.9816 11.9815 33.1266 11.9815 33.3055V41.7843C11.9815 42.7867 13.2078 43.2728 13.8945 42.5425L22.7905 33.0836C22.8518 33.0184 22.9372 32.9816 23.0266 32.9816H34.1035C38.4646 32.9816 42 29.4461 42 25.0851V7.89651C42 3.53544 38.4646 0 34.1035 0Z" fill="#407BFF"/>
<path d="M15.8898 16.5458C15.8898 17.957 14.7458 19.101 13.3346 19.101C11.9234 19.101 10.7794 17.957 10.7794 16.5458C10.7794 15.1347 11.9234 13.9907 13.3346 13.9907C14.7458 13.9907 15.8898 15.1347 15.8898 16.5458Z" fill="white"/>
<path d="M23.5134 16.5458C23.5134 17.957 22.3694 19.101 20.9582 19.101C19.5471 19.101 18.4031 17.957 18.4031 16.5458C18.4031 15.1347 19.5471 13.9907 20.9582 13.9907C22.3694 13.9907 23.5134 15.1347 23.5134 16.5458Z" fill="white"/>
<path d="M31.1371 16.5458C31.1371 17.957 29.9931 19.101 28.5819 19.101C27.1707 19.101 26.0267 17.957 26.0267 16.5458C26.0267 15.1347 27.1707 13.9907 28.5819 13.9907C29.9931 13.9907 31.1371 15.1347 31.1371 16.5458Z" fill="white"/>
</svg>
